!!!OTL: ICH HATTE MEIN FEINSLIEBCHEN
!!!ARE: Europa, Mitteleuropa, Deutschland
!!!SCT: Z0301
!!!YEM: Copyright 1995, estate of Helmut Schaffrath.
**kern
*ICvox
*Ivox
*M3/4
*k[f#]
*G:
{8d
=1
8.g
16b
4dd
4b
=2
4cc
4.a}
{8g
=3
8.f#
16a
4cc
4a
=4
8dd
8b
4.g}
{8d
=5
8.g
16g
4b
4dd
=6
[2gg
8gg]}
{8ee
=7
8.dd
16cc
4b
4a
=8
2g
8r}
==
!!!AGN: Lyrisches Lied, Romanze, verlassene Liebe
!!!ONB: ESAC (Essen Associative Code) Database: ZUCCAL
!!!AMT: simple triple
!!!AIN: vox
!!!EED: Helmut Schaffrath
!!!EEV: 1.0
*-
